assets/images/icons/ico-shop-5.svg

<svg width="42" height="32" viewBox="0 0 42 32" fill="none" xmlns="http://www.w3.org/2000/svg">
<path d="M38.0854 21.414C38.0854 22.8868 30.0266 24.0807 20.0857 24.0807C10.1447 24.0807 2.08594 22.8868 2.08594 21.414C2.08594 20.6483 2.92976 20.2337 6.41855 19.7474C6.51362 19.7341 5.05719 21.4685 5.7519 21.414C6.16327 21.3818 12.628 22.4489 13.0851 22.414C14.7518 20.0807 13.4184 19.7474 13.4184 19.7474L17.4184 21.7474L18.4184 20.414L17.4184 19.4597C17.4184 19.4597 19.6132 19.4141 20.7523 19.4141C21.8666 19.4141 27.0849 19.4597 27.0849 19.4597L28.7515 20.414L29.0849 22.7473L36.0848 21.7474C36.0848 21.7474 35.1426 19.921 36.0848 20.191C37.3633 20.5573 38.0854 20.9732 38.0854 21.414Z" fill="#48FDBC"/>
<path d="M40.8863 28.5624V21.0664L40.49 21.4428L38.2862 23.1439L28.7592 24.5013L23.958 24.6773H13.4255L4.17504 23.4456L1.88756 22.3647L1.14453 21.5351V28.2468L2.03787 29.4533L10.1326 30.8359L17.6732 31.414L29.1111 31.2381L38.5374 29.8304L40.8863 28.5624Z" fill="white"/>
<path d="M29.3932 22.8047L35.7993 21.803L32.4336 14.3119L31.4434 13.0487L30.6358 12.9568C29.1248 12.7848 27.6405 13.4516 26.7657 14.6955L26.0999 15.9219L25.7209 16.3693L23.3102 16.1664L22.8555 17.5978L27.4493 19.4636L29.3932 22.8047Z" fill="white"/>
<path d="M12.0734 22.6448L5.87066 21.7598L8.9683 14.2532L9.95852 12.9901L10.7596 12.8989C12.2643 12.7276 13.7358 13.4257 14.5549 14.6996L15.302 15.8633L15.681 16.3107L14.9582 17.9024L17.7031 20.7802L16.5035 21.5929L13.9526 19.405L12.0734 22.6448Z" fill="white"/>
<path d="M34.6311 7.41161C35.5719 7.11356 36.6525 7.89994 36.6583 8.88633C36.7292 9.7999 35.8787 10.6339 34.9651 10.5416C34.1583 10.5251 33.4535 9.79504 33.4593 8.99118C33.4176 8.27469 33.9486 7.60092 34.6311 7.41161Z" fill="white"/>
<path d="M6.77568 7.41161C7.71643 7.11356 8.79699 7.89994 8.80281 8.88633C8.87368 9.7999 8.02322 10.6339 7.10965 10.5416C6.30287 10.5251 5.59804 9.79504 5.60387 8.99118C5.56212 8.27469 6.09317 7.60092 6.77568 7.41161Z" fill="#F7F7F7"/>
<path d="M18.048 3.18662L19.6583 6.76084C19.6583 6.84851 19.6173 6.97125 19.453 6.76084C19.2477 6.49782 18.6627 6.76084 18.37 6.76084C18.0772 6.76084 16.7307 5.53098 15.6184 5.20899C14.506 4.887 13.6864 4.887 13.423 4.79918C13.1595 4.71137 11.6374 3.97956 11.5496 3.80393C11.4793 3.66343 11.3839 3.06237 11.345 2.77941C11.3352 2.53548 11.3215 2.00663 11.345 1.84271C11.3742 1.6378 12.4868 0.964844 12.7503 0.964844H14.0963L15.9991 1.51983L18.048 3.18662Z" fill="white"/>
<path d="M24.6342 5.38462L23.9316 6.76084L22.9071 5.20899L22.7315 3.18662L23.3462 2.19397L24.6342 1.95979C24.8098 2.57451 25.1669 3.83906 25.1903 3.97956C25.2138 4.12007 24.8293 4.97481 24.6342 5.38462Z" fill="white"/>
<path d="M11.6858 3.22472C11.9121 2.52894 12.8199 2.01673 13.6141 2.27505C14.9356 2.63035 15.9512 3.55485 16.689 4.56226C17.0704 5.08261 17.3929 5.6348 17.664 6.20697C16.7462 5.50674 15.666 4.97899 14.5153 4.65404C13.7816 4.47861 13.0056 4.44901 12.2968 4.19364C11.8806 4.03894 11.5788 3.63257 11.6858 3.22472Z" fill="#48FDBC"/>
<path d="M23.0214 3.23387C23.0437 3.05815 23.2194 2.97757 23.3427 2.87854C23.6845 2.8465 24.0709 3.0329 24.1204 3.40183C24.3194 4.45714 23.8728 5.5008 23.3553 6.39786C23.3835 5.79011 23.368 5.17362 23.2155 4.58141C23.133 4.13676 22.935 3.69211 23.0214 3.23387Z" fill="#48FDBC"/>
<path d="M6.07892 8.3463C6.57114 8.18029 7.07598 8.73853 6.83716 9.20939C6.66337 9.64239 6.00514 9.71326 5.73233 9.34045C5.45467 9.01037 5.64204 8.42009 6.07892 8.3463Z" fill="#48FDBC"/>
<path d="M34.2344 8.34726C34.6402 8.20648 35.1188 8.56861 35.0548 9.00452C35.0431 9.48412 34.4159 9.7511 34.0431 9.46859C33.6033 9.20937 33.7257 8.44046 34.2344 8.34726Z" fill="#48FDBC"/>
<path d="M13.5583 8.68271C14.3252 8.4633 15.2194 8.93707 15.4563 9.7021C15.7747 10.4953 15.2883 11.4875 14.4767 11.7389C13.9573 11.8962 13.3369 11.8283 12.9253 11.4525C12.4136 11.036 12.2195 10.2817 12.4651 9.67006C12.6272 9.17784 13.067 8.81766 13.5583 8.68271Z" fill="#F7F7F7"/>
<path d="M26.971 8.68895C27.9117 8.3909 28.9923 9.17729 28.9981 10.1637C29.069 11.0772 28.2185 11.9112 27.305 11.819C26.4982 11.8025 25.7934 11.0724 25.7992 10.2685C25.7574 9.55204 26.2885 8.87827 26.971 8.68895Z" fill="#F7F7F7"/>
<path d="M12.9007 0.0532436C13.9686 -0.162285 15.0249 0.311489 15.9239 0.846427C17.553 1.90659 18.7268 3.53859 19.5675 5.26476C20.1471 6.39968 20.517 7.63945 20.6753 8.90253C20.7364 9.3064 20.3151 9.66076 19.9267 9.56853C19.5277 9.50834 19.3831 9.08505 19.1452 8.81709C18.0763 7.39092 16.5501 6.33172 14.8667 5.76669C13.7929 5.4366 12.6046 5.46184 11.6173 4.87739C10.7445 4.38711 10.2503 3.3017 10.4833 2.32309C10.7755 1.19205 11.7435 0.260034 12.9007 0.0532436ZM11.7328 2.60366C11.6075 3.1386 11.9609 3.6716 12.4483 3.8745C13.2784 4.20945 14.1871 4.24828 15.0463 4.47837C16.3938 4.90457 17.6588 5.59679 18.7336 6.51521C18.4161 5.76475 18.0384 5.04049 17.5919 4.35799C16.7278 3.03666 15.5385 1.82407 13.991 1.35806C13.0609 1.01924 11.9978 1.69107 11.7328 2.60366Z" fill="black"/>
<path d="M22.076 2.79925C22.1547 1.94782 22.9653 1.24104 23.8177 1.26628C24.4566 1.25172 25.0954 1.58957 25.4439 2.12645C25.8332 2.69052 25.8264 3.41865 25.7721 4.07397C25.5779 5.51666 24.8303 6.82633 23.9265 7.94281C23.5352 8.42241 23.077 8.85249 22.5653 9.20103C22.211 9.40879 21.8032 9.15928 21.6411 8.82822C21.6392 8.63599 21.6382 8.43794 21.744 8.26901C22.2877 7.2603 22.5362 6.08072 22.3993 4.93997C22.2789 4.23125 21.9595 3.5303 22.076 2.79925ZM23.3634 2.89342C23.277 3.35166 23.475 3.79631 23.5576 4.24096C23.71 4.83318 23.7255 5.44967 23.6974 6.05742C24.2148 5.16035 24.6614 4.11669 24.4624 3.06138C24.4129 2.69246 24.0265 2.50605 23.6847 2.53809C23.5614 2.63712 23.3857 2.7177 23.3634 2.89342Z" fill="black"/>
<path d="M6.60779 7.06301C7.64272 6.85817 8.70191 7.67174 8.82424 8.70763C8.94268 9.52897 8.44464 10.3736 7.69611 10.7105C7.22137 10.9066 6.67672 10.9173 6.19615 10.7348C5.40685 10.4212 4.8826 9.54256 5.01172 8.69889C5.12142 7.88532 5.78646 7.17563 6.60779 7.06301ZM6.74857 8.34745C6.31168 8.42123 6.12431 9.01151 6.40197 9.3416C6.67478 9.7144 7.33302 9.64353 7.5068 9.21053C7.74563 8.73967 7.24079 8.18143 6.74857 8.34745Z" fill="black"/>
<path d="M34.7913 7.05816C35.7097 6.89215 36.6776 7.51252 36.9184 8.41347C37.1495 9.11927 36.8825 9.94741 36.3116 10.4134C35.798 10.8843 35.0136 10.9707 34.3728 10.7387C33.5583 10.4163 33.0156 9.49888 33.1826 8.62803C33.3243 7.84067 33.9855 7.15719 34.7913 7.05816ZM34.9 8.34745C34.3913 8.44065 34.2689 9.20956 34.7087 9.46878C35.0815 9.7513 35.7087 9.48431 35.7204 9.00472C35.7844 8.5688 35.3058 8.20668 34.9 8.34745Z" fill="black"/>
<path d="M11.6947 8.44893C12.3995 7.52662 13.7014 7.12663 14.8043 7.48682C15.6489 7.71982 16.3159 8.39359 16.6528 9.18872C16.9091 9.98675 16.8955 10.9052 16.4664 11.6411C16.0373 12.3974 15.2567 12.9605 14.3898 13.075C13.3296 13.2605 12.2044 12.7663 11.5976 11.8838C10.8733 10.8858 10.918 9.40619 11.6947 8.44893ZM13.5587 8.6829C13.0675 8.81785 12.6277 9.17804 12.4655 9.67026C12.2199 10.2819 12.4141 11.0362 12.9257 11.4527C13.3374 11.8285 13.9577 11.8964 14.4771 11.7391C15.2888 11.4877 15.7752 10.4955 15.4567 9.7023C15.2198 8.93727 14.3257 8.46349 13.5587 8.6829Z" fill="black"/>
<path d="M26.7784 7.42725C27.4114 7.27288 28.0842 7.37773 28.6726 7.64375C29.6415 8.12335 30.3143 9.17672 30.2832 10.2641C30.2949 11.6145 29.2133 12.8844 27.8726 13.0689C26.7192 13.2883 25.4853 12.6931 24.9096 11.6776C24.661 11.2165 24.4921 10.699 24.5183 10.1699C24.5329 8.88546 25.5105 7.67384 26.7784 7.42725ZM26.9726 8.68838C26.2901 8.8777 25.759 9.55147 25.8008 10.268C25.795 11.0718 26.4998 11.8019 27.3066 11.8184C28.2201 11.9106 29.0706 11.0767 28.9997 10.1631C28.9939 9.17672 27.9134 8.39033 26.9726 8.68838Z" fill="black"/>
<path d="M3.74392 11.3388C3.8381 10.9165 4.40604 10.7233 4.73613 11.0009C5.08467 11.2504 5.05942 11.8572 4.68273 12.0679C4.53711 12.1727 4.34779 12.1417 4.17983 12.1621C3.87887 12.0155 3.62742 11.6883 3.74392 11.3388Z" fill="black"/>
<path d="M37.0494 11.7307C36.9077 11.3481 37.1815 10.8773 37.6019 10.8705C38.0397 10.8219 38.4018 11.3181 38.2387 11.7229C38.1776 11.9307 37.9863 12.0481 37.8154 12.1588C37.5057 12.1908 37.131 12.0646 37.0494 11.7307Z" fill="black"/>
<path d="M8.84935 12.483C9.20371 12.1558 9.65224 11.9675 10.0755 11.75C10.2658 12.1587 10.4716 12.5636 10.7755 12.9014C10.0056 13.0888 9.327 13.6218 8.98138 14.3363C7.94063 16.8101 6.94454 19.3032 5.88729 21.7692C5.48147 21.6468 5.05333 21.6061 4.65625 21.4517C5.61933 19.076 6.61736 16.7149 7.58918 14.3431C7.84743 13.6315 8.25713 12.9636 8.84935 12.483Z" fill="black"/>
<path d="M31.2754 11.7617C32.255 12.1413 33.1122 12.8675 33.5491 13.8345C34.1306 15.1985 34.6782 16.5762 35.2588 17.9402C35.7335 19.1576 36.2869 20.345 36.7345 21.5712C36.318 21.6838 35.8956 21.7712 35.4753 21.8615C34.6549 19.7751 33.7598 17.7188 32.921 15.6403C32.6452 15.0713 32.4948 14.4393 32.119 13.9228C31.7492 13.4277 31.2113 13.0597 30.6094 12.9112C30.8531 12.5413 31.1074 12.1743 31.2754 11.7617Z" fill="black"/>
<path d="M25.7556 14.0781C26.1721 14.2053 26.5867 14.3393 27.0207 14.3917C26.7537 14.9558 26.7061 15.5926 26.8003 16.2043C27.643 16.4868 28.4876 16.7664 29.3284 17.0577C29.5342 17.1198 29.7429 17.2479 29.8099 17.4654C30.0274 17.9101 29.5041 18.4644 29.0468 18.3052C27.8896 17.9246 26.7372 17.5324 25.5838 17.1402C25.0858 17.0052 24.6149 16.7878 24.1178 16.6528C23.7868 16.5315 23.4227 16.9344 23.5994 17.2489C23.8178 17.479 24.1566 17.512 24.4401 17.6217C26.5818 18.3906 28.7391 19.1188 30.8759 19.9003C31.2671 20.042 31.3817 20.6352 31.0555 20.9003C30.874 21.0954 30.5759 21.1682 30.3293 21.0595C29.7167 20.8294 29.0905 20.6372 28.4808 20.3974C28.7488 21.2129 29.1361 21.9857 29.4361 22.7905C29.008 22.8342 28.5798 22.8857 28.1507 22.9061C28.0449 22.8303 28.0245 22.6983 27.974 22.5896C27.5915 21.675 27.2206 20.7556 26.8401 19.8401C25.6527 19.3809 24.4363 19.0023 23.246 18.5508C22.5159 18.2635 22.1052 17.3674 22.3392 16.6227C22.5266 15.9227 23.1858 15.3791 23.913 15.3538C24.4693 15.3169 24.9615 15.6237 25.4828 15.7655C25.4615 15.1878 25.6081 14.6296 25.7556 14.0781Z" fill="black"/>
<path d="M14.3377 14.3965C14.762 14.3237 15.1872 14.2392 15.5833 14.0625C15.961 15.1091 15.9736 16.2993 15.5474 17.3333C15.5251 17.4294 15.4056 17.5721 15.5231 17.6498C16.227 18.1896 16.9551 18.6973 17.6687 19.2245C18.1308 19.5439 18.4522 20.0905 18.4405 20.6594C18.458 21.3953 17.9357 22.1186 17.2192 22.3099C16.692 22.4963 16.1008 22.3409 15.66 22.0205C15.1348 21.639 14.6008 21.272 14.0775 20.8895C13.8484 21.5167 13.5542 22.1176 13.3319 22.7467C12.8882 22.7157 12.4465 22.6516 12.0019 22.637C12.0116 22.5982 12.0319 22.5215 12.0426 22.4827C12.3688 21.7011 12.6844 20.9138 13.0164 20.1342C11.865 19.3381 10.732 18.5148 9.58735 17.7109C9.43687 17.6071 9.27377 17.4983 9.20872 17.3187C9.04659 16.9789 9.27959 16.5382 9.64172 16.4586C9.86598 16.3848 10.0903 16.4974 10.2699 16.6255C12.3378 18.0886 14.4008 19.5575 16.4687 21.0206C16.7396 21.272 17.1978 21.0002 17.1561 20.6507C17.1823 20.4546 16.9959 20.3361 16.8668 20.2284C15.4649 19.1983 14.0562 18.1779 12.6552 17.1488C12.2116 16.8498 12.3902 16.0673 12.9271 16.0071C13.5329 15.9615 13.8678 16.611 14.4057 16.7818C14.6513 16.0071 14.6668 15.1499 14.3377 14.3965Z" fill="black"/>
<path d="M17.2578 17.3482C18.5044 17.3025 19.7519 17.2763 21.0004 17.2695C21.0529 17.7171 21.1849 18.1501 21.3829 18.554C20.5422 18.5549 19.7014 18.5695 18.8617 18.5685C18.3675 18.1103 17.7986 17.7452 17.2578 17.3482Z" fill="black"/>
<path d="M36.9533 18.6914C38.1717 19.0098 39.4202 19.3263 40.494 20.0127C40.9037 20.2943 41.3183 20.6486 41.4396 21.1545C41.5891 21.6942 41.2784 22.2428 40.8688 22.5787C40.1202 23.2078 39.1756 23.5223 38.264 23.833C36.1446 24.4437 33.9592 24.7913 31.768 25.0145C30.7341 25.1456 29.6972 25.2582 28.6555 25.3048C25.5895 25.5184 22.511 25.6466 19.4363 25.5893C17.4024 25.5359 15.3655 25.4582 13.3374 25.3048C12.0909 25.2485 10.8521 25.0844 9.61228 24.9476C7.28612 24.6641 4.94347 24.301 2.73576 23.4874C1.99111 23.1602 1.17949 22.8107 0.713478 22.1088C0.353293 21.5758 0.524162 20.8409 0.984344 20.4273C1.89403 19.5739 3.13672 19.2341 4.29979 18.8788C4.14057 19.3924 3.89883 19.8758 3.71049 20.3787C3.06293 20.6273 2.3581 20.8292 1.84937 21.3253C1.75326 21.402 1.79889 21.5457 1.89694 21.5991C2.39013 22.0408 3.03672 22.2369 3.64156 22.4738C5.5619 23.0806 7.55602 23.4165 9.55208 23.6563C10.8016 23.8447 12.0617 23.9456 13.3219 24.0311C16.8121 24.3107 20.3169 24.3709 23.8168 24.2864C25.7643 24.2515 27.706 24.0981 29.6487 23.9719C32.0515 23.7466 34.4544 23.4466 36.8106 22.9127C37.8145 22.6379 38.8455 22.3894 39.7513 21.8593C39.9076 21.734 40.1435 21.635 40.2008 21.4302C40.0882 21.2049 39.8406 21.0816 39.6377 20.9467C38.9853 20.6069 38.2892 20.3554 37.5756 20.1787C37.3494 19.6904 37.1553 19.1895 36.9533 18.6914Z" fill="black"/>
<path d="M0.565966 24.7144C0.708681 24.328 1.24168 24.2037 1.55332 24.463C1.79312 24.6193 1.71448 24.9824 1.94457 25.1464C2.20282 25.3571 2.52514 25.4649 2.82707 25.5959C4.19306 26.095 5.6338 26.326 7.05609 26.5979C8.6609 26.8046 10.2609 27.0561 11.8764 27.1571C17.7063 27.6308 23.5761 27.6541 29.4089 27.2124C31.2759 27.1037 33.1292 26.8483 34.9806 26.5872C36.1767 26.359 37.3815 26.1571 38.5456 25.7882C39.0426 25.6445 39.5368 25.459 39.9766 25.1804C40.2814 25.0241 40.1814 24.5921 40.4659 24.4183C40.6261 24.3086 40.8251 24.3173 41.0115 24.3086C41.3154 24.4465 41.5455 24.7668 41.4659 25.1125C41.33 25.8464 40.6212 26.2581 40.0106 26.5716C39.497 26.7862 38.9805 27.0124 38.4368 27.1406L38.3786 27.1745C35.6534 27.9153 32.8312 28.1871 30.0264 28.4473C26.9905 28.6434 23.9489 28.7939 20.9052 28.8075C18.316 28.7832 15.7248 28.69 13.1433 28.5095C11.5123 28.4473 9.89097 28.2425 8.27062 28.058C6.51727 27.8318 4.76295 27.5328 3.07367 27.0017C2.29699 26.7134 1.46886 26.4299 0.885375 25.8124C0.61645 25.5319 0.418397 25.0989 0.565966 24.7144Z" fill="black"/>
<path d="M0.515846 28.1207C0.530409 27.6538 1.10418 27.3489 1.49543 27.614C1.81484 27.7703 1.69931 28.2295 2.01095 28.3916C2.68763 28.8275 3.48567 29.0013 4.24973 29.2217C6.14774 29.6935 8.08944 29.9459 10.0282 30.1848C13.3864 30.5129 16.7611 30.711 20.1367 30.7139C23.4987 30.7459 26.8627 30.6372 30.2122 30.3382C31.6102 30.2663 32.9966 30.0508 34.3829 29.8634C35.3654 29.7489 36.3295 29.5149 37.2994 29.3275C38.2081 29.0751 39.1615 28.8858 39.9721 28.38C40.2148 28.2576 40.2129 27.9693 40.3255 27.7576C40.4711 27.5256 40.7682 27.5004 41.0167 27.5043C41.2536 27.6305 41.4721 27.8382 41.4798 28.1246C41.4934 28.6596 41.0983 29.0867 40.6876 29.3741C39.708 30.0372 38.5411 30.3168 37.4139 30.6178C35.0441 31.1488 32.6247 31.4148 30.2083 31.6177C25.887 31.9313 21.5444 32.109 17.2115 31.9206C13.0864 31.7488 8.94281 31.5236 4.88952 30.6886C3.74198 30.4013 2.56725 30.1255 1.53815 29.5207C1.03331 29.2246 0.503225 28.7566 0.515846 28.1207Z" fill="black"/>
</svg>

<svg xmlns="http://www.w3.org/2000/svg" width="42" height="32" fill="none"><path fill="#48FDBC" d="M38.085 21.414c0 1.473-8.058 2.667-18 2.667-9.94 0-18-1.194-18-2.667 0-.766.845-1.18 4.334-1.667.095-.013-1.362 1.721-.667 1.667.411-.032 6.876 1.035 7.333 1 1.667-2.333.333-2.667.333-2.667l4 2 1-1.333-1-.954s2.195-.046 3.334-.046c1.115 0 6.333.046 6.333.046l1.666.954.334 2.333 7-1s-.942-1.826 0-1.556c1.278.366 2 .782 2 1.223"/><path fill="#fff" d="M40.886 28.562v-7.496l-.396.377-2.204 1.7-9.527 1.358-4.801.176H13.426l-9.251-1.231-2.287-1.081-.743-.83v6.712l.893 1.206 8.095 1.383 7.54.578 11.438-.176 9.426-1.408z"/><path fill="#fff" d="m29.393 22.805 6.406-1.002-3.365-7.491-.99-1.263-.808-.092a4.16 4.16 0 0 0-3.87 1.738l-.666 1.227-.38.447-2.41-.203-.454 1.432 4.593 1.866zM12.073 22.645l-6.202-.885 3.097-7.507.99-1.263.802-.091a3.98 3.98 0 0 1 3.795 1.8l.747 1.164.379.448-.723 1.591 2.745 2.878-1.2.813-2.55-2.188zM34.631 7.412c.94-.298 2.022.488 2.027 1.474.071.914-.78 1.748-1.693 1.656-.807-.017-1.512-.747-1.506-1.55-.041-.717.49-1.391 1.172-1.58"/><path fill="#F7F7F7" d="M6.776 7.412c.94-.298 2.021.488 2.027 1.474.07.914-.78 1.748-1.693 1.656-.807-.017-1.512-.747-1.506-1.55-.042-.717.49-1.391 1.172-1.58"/><path fill="#fff" d="m18.048 3.187 1.61 3.574c0 .088-.04.21-.205 0-.205-.263-.79 0-1.083 0s-1.64-1.23-2.752-1.552-1.932-.322-2.195-.41c-.264-.088-1.786-.82-1.873-.995-.07-.14-.166-.742-.205-1.025-.01-.244-.024-.772 0-.936.03-.205 1.142-.878 1.405-.878h1.346L16 1.52zM24.634 5.385l-.702 1.376-1.025-1.552-.175-2.022.614-.993 1.288-.234c.176.615.533 1.88.556 2.02s-.36.995-.556 1.405"/><path fill="#48FDBC" d="M11.686 3.225c.226-.696 1.134-1.208 1.928-.95 1.322.355 2.337 1.28 3.075 2.287.381.52.704 1.073.975 1.645a9.4 9.4 0 0 0-3.149-1.553c-.733-.175-1.51-.205-2.218-.46-.416-.155-.718-.561-.611-.97M23.021 3.234c.023-.176.198-.256.322-.355.341-.033.728.154.777.523.2 1.055-.247 2.099-.765 2.996.029-.608.013-1.224-.14-1.817-.082-.444-.28-.889-.194-1.347M6.079 8.346c.492-.166.997.393.758.863-.174.433-.832.504-1.105.131-.277-.33-.09-.92.347-.994M34.234 8.347c.406-.14.885.222.82.658-.01.48-.638.746-1.01.464-.44-.26-.318-1.029.19-1.122"/><path fill="#F7F7F7" d="M13.558 8.683c.767-.22 1.661.254 1.898 1.02.319.792-.168 1.785-.98 2.036-.519.157-1.14.09-1.55-.287a1.59 1.59 0 0 1-.46-1.782c.161-.492.601-.852 1.092-.987M26.971 8.689c.94-.298 2.021.488 2.027 1.475.071.913-.78 1.747-1.693 1.655-.807-.017-1.512-.747-1.506-1.55-.042-.717.49-1.39 1.172-1.58"/><path fill="#000" d="M12.9.053c1.069-.215 2.125.258 3.024.793 1.629 1.06 2.803 2.693 3.643 4.419.58 1.135.95 2.374 1.108 3.638.061.403-.36.758-.748.666-.4-.06-.544-.484-.782-.752-1.069-1.426-2.595-2.485-4.278-3.05-1.074-.33-2.262-.305-3.25-.89-.873-.49-1.367-1.575-1.134-2.554.292-1.131 1.26-2.063 2.418-2.27m-1.167 2.55c-.126.536.228 1.069.715 1.271.83.335 1.74.374 2.598.604a10.6 10.6 0 0 1 3.688 2.037 13.7 13.7 0 0 0-1.142-2.157c-.864-1.321-2.053-2.534-3.601-3-.93-.339-1.993.333-2.258 1.246M22.076 2.8c.079-.852.89-1.559 1.742-1.534a1.93 1.93 0 0 1 1.626.86c.39.565.382 1.293.328 1.948-.194 1.443-.942 2.752-1.845 3.869-.392.48-.85.91-1.362 1.258-.354.208-.762-.042-.924-.373-.002-.192-.003-.39.103-.559.544-1.009.792-2.188.655-3.329-.12-.709-.44-1.41-.323-2.14m1.287.093c-.086.459.112.903.195 1.348.152.592.168 1.209.14 1.816.517-.897.963-1.94.764-2.996-.05-.369-.436-.555-.777-.523-.124.1-.3.18-.322.355M6.608 7.063c1.035-.205 2.094.609 2.216 1.645.119.821-.38 1.666-1.128 2.002a2.05 2.05 0 0 1-1.5.025c-.79-.314-1.313-1.192-1.184-2.036.11-.814.774-1.523 1.596-1.636m.14 1.284c-.436.074-.624.665-.346.995.273.372.931.302 1.105-.131.239-.471-.266-1.03-.758-.864M34.791 7.058c.919-.166 1.887.455 2.127 1.355.232.706-.035 1.534-.606 2-.514.471-1.298.558-1.94.326-.814-.323-1.356-1.24-1.19-2.111.142-.787.803-1.47 1.61-1.57m.109 1.29c-.509.093-.631.862-.191 1.12.372.283 1 .016 1.011-.463.064-.436-.414-.798-.82-.658M11.695 8.449c.704-.922 2.006-1.322 3.11-.962.844.233 1.51.907 1.848 1.702.256.798.242 1.716-.187 2.452-.429.756-1.21 1.32-2.076 1.434-1.06.186-2.186-.309-2.792-1.191-.725-.998-.68-2.478.097-3.435m1.864.234c-.491.135-.931.495-1.093.987a1.59 1.59 0 0 0 .46 1.783c.411.376 1.032.443 1.551.286.812-.251 1.298-1.244.98-2.037-.237-.765-1.131-1.239-1.898-1.02M26.778 7.427c.633-.154 1.306-.05 1.895.217.969.48 1.641 1.533 1.61 2.62.012 1.35-1.07 2.62-2.41 2.805-1.154.22-2.388-.376-2.963-1.391-.249-.462-.418-.979-.392-1.508.015-1.285.992-2.496 2.26-2.743m.195 1.261c-.683.19-1.214.863-1.172 1.58-.006.804.699 1.534 1.506 1.55.913.093 1.764-.741 1.693-1.655-.006-.986-1.087-1.773-2.027-1.475M3.744 11.339c.094-.423.662-.616.992-.338.349.25.323.856-.053 1.067-.146.105-.335.074-.503.094-.301-.147-.553-.474-.436-.823M37.05 11.73c-.142-.382.132-.853.552-.86.438-.048.8.448.637.853-.061.208-.253.325-.424.436-.31.032-.684-.094-.766-.428M8.85 12.483c.354-.327.802-.516 1.226-.733.19.409.396.814.7 1.151-.77.188-1.449.72-1.795 1.435-1.04 2.474-2.036 4.967-3.094 7.433-.406-.122-.834-.163-1.23-.317.962-2.376 1.96-4.737 2.932-7.109.258-.711.668-1.38 1.26-1.86M31.275 11.762c.98.38 1.837 1.105 2.274 2.073.582 1.363 1.13 2.741 1.71 4.105.474 1.218 1.028 2.405 1.475 3.631-.416.113-.838.2-1.259.29-.82-2.086-1.715-4.142-2.554-6.22-.276-.57-.426-1.202-.802-1.718a2.72 2.72 0 0 0-1.51-1.012c.244-.37.498-.737.666-1.15M25.756 14.078c.416.127.83.261 1.265.314-.267.564-.315 1.2-.22 1.812.842.283 1.687.562 2.527.854.206.062.415.19.482.407.217.445-.306 1-.763.84-1.157-.38-2.31-.773-3.463-1.165-.498-.135-.97-.352-1.466-.487-.331-.121-.695.281-.519.596.219.23.558.263.841.373 2.142.769 4.3 1.497 6.436 2.278.391.142.506.735.18 1a.65.65 0 0 1-.727.16c-.612-.23-1.239-.423-1.848-.663.268.816.655 1.589.955 2.394-.428.043-.856.095-1.285.115-.106-.076-.127-.208-.177-.316-.383-.915-.753-1.834-1.134-2.75-1.187-.46-2.404-.838-3.594-1.29-.73-.287-1.14-1.183-.907-1.927.188-.7.847-1.244 1.574-1.27.556-.036 1.049.27 1.57.412-.021-.577.125-1.135.273-1.687M14.338 14.397c.424-.073.85-.158 1.245-.335.378 1.047.39 2.237-.036 3.271-.022.096-.141.24-.024.317.704.54 1.432 1.047 2.146 1.575.462.319.783.865.771 1.434.018.736-.504 1.46-1.22 1.65-.528.187-1.12.032-1.56-.289-.525-.381-1.06-.748-1.582-1.13-.23.627-.524 1.228-.746 1.857-.444-.031-.886-.095-1.33-.11l.04-.154c.327-.782.642-1.57.974-2.349-1.151-.796-2.284-1.62-3.429-2.423-.15-.104-.313-.213-.378-.392-.162-.34.07-.78.433-.86.224-.074.448.038.628.166 2.068 1.464 4.13 2.933 6.199 4.396.27.251.729-.02.687-.37.026-.196-.16-.315-.29-.423-1.401-1.03-2.81-2.05-4.21-3.08-.444-.298-.266-1.08.271-1.14.606-.046.94.603 1.479.774.245-.775.26-1.632-.068-2.386M17.258 17.348A120 120 0 0 1 21 17.27c.053.447.185.88.383 1.284-.84 0-1.682.016-2.521.015-.494-.459-1.063-.824-1.604-1.22"/><path fill="#000" d="M36.953 18.691c1.219.319 2.467.635 3.541 1.322.41.281.824.636.946 1.141.15.54-.162 1.089-.571 1.425-.749.629-1.693.943-2.605 1.254-2.12.61-4.305.958-6.496 1.182a38 38 0 0 1-3.113.29c-3.065.213-6.144.342-9.219.284-2.034-.053-4.07-.13-6.099-.284-1.246-.056-2.485-.22-3.725-.357-2.326-.284-4.669-.647-6.876-1.46-.745-.328-1.557-.677-2.023-1.38-.36-.532-.189-1.267.271-1.68.91-.854 2.153-1.194 3.316-1.55-.16.514-.401.998-.59 1.5-.647.25-1.352.451-1.86.947-.097.077-.051.22.047.274.493.442 1.14.638 1.745.875 1.92.607 3.914.942 5.91 1.182 1.25.189 2.51.29 3.77.375 3.49.28 6.995.34 10.495.255 1.947-.035 3.889-.188 5.832-.314 2.402-.225 4.805-.525 7.162-1.06 1.004-.274 2.035-.523 2.94-1.053.157-.125.393-.224.45-.429-.113-.225-.36-.348-.563-.483a9.3 9.3 0 0 0-2.062-.768c-.227-.489-.42-.99-.623-1.488"/><path fill="#000" d="M.566 24.714c.143-.386.676-.51.987-.251.24.156.161.52.392.683.258.211.58.319.882.45 1.366.499 2.807.73 4.23 1.002 1.604.207 3.204.458 4.82.56 5.83.473 11.7.496 17.532.054 1.867-.108 3.72-.364 5.572-.625 1.196-.228 2.4-.43 3.565-.799.497-.143.99-.329 1.43-.608.305-.156.205-.588.49-.762.16-.11.36-.1.545-.11.304.139.534.459.455.805-.136.733-.845 1.145-1.455 1.459-.514.214-1.03.44-1.574.569l-.058.034c-2.726.74-5.548 1.012-8.353 1.272-3.035.196-6.077.347-9.12.36-2.59-.024-5.181-.117-7.763-.297-1.63-.063-3.252-.268-4.872-.452-1.754-.226-3.508-.525-5.197-1.056-.777-.289-1.605-.572-2.189-1.19-.269-.28-.467-.713-.319-1.098"/><path fill="#000" d="M.516 28.12c.014-.466.588-.771.98-.506.319.156.203.616.515.778.677.436 1.475.61 2.239.83 1.898.471 3.84.724 5.778.963 3.358.328 6.733.526 10.109.529 3.362.032 6.726-.077 10.075-.376 1.398-.072 2.785-.287 4.17-.475.983-.114 1.948-.348 2.917-.535.91-.253 1.862-.442 2.673-.948.243-.122.24-.41.353-.622.146-.232.443-.258.692-.254.237.127.455.334.463.62.013.536-.382.963-.792 1.25-.98.663-2.147.943-3.274 1.244-2.37.53-4.79.797-7.206 1-4.321.313-8.664.491-12.996.303-4.126-.172-8.27-.397-12.322-1.232-1.148-.288-2.323-.564-3.352-1.168-.505-.296-1.035-.764-1.022-1.4"/></svg>
